packages/ui-icons/src/Basic/32/Megafon-Bank_32.svg

<svg xmlns="http://www.w3.org/2000/svg" viewBox="0 0 40 40"><path d="M15.8 35.44A15.77 15.77 0 0 0 20 36 16 16 0 1 0 4.54 24.12l1.93-.52A13.77 13.77 0 0 1 6 20a14 14 0 1 1 10.31 13.51ZM9.44 29a1.5 1.5 0 1 0 1.5 1.5 1.5 1.5 0 0 0-1.5-1.5Zm-2.28-2.87a1.5 1.5 0 1 0 1.5 1.5 1.5 1.5 0 0 0-1.5-1.5Zm5.24 5.22a1.5 1.5 0 1 0 1.5 1.5 1.5 1.5 0 0 0-1.5-1.5ZM22 22a5 5 0 0 0 0-10h-6v8h-2v2h2v2h-2v2h2v3h2v-3h6v-2h-6v-2Zm-4-8h4a3 3 0 0 1 0 6h-4Z"/></svg>

<svg xmlns="http://www.w3.org/2000/svg" viewBox="0 0 40 40"><g id="New"><path d="M15.8,35.44A15.77,15.77,0,0,0,20,36,16,16,0,1,0,4.54,24.12l1.93-.52A13.77,13.77,0,0,1,6,20,14,14,0,1,1,16.31,33.51ZM9.44,29a1.5,1.5,0,1,0,1.5,1.5A1.5,1.5,0,0,0,9.44,29ZM7.16,26.13a1.5,1.5,0,1,0,1.5,1.5A1.5,1.5,0,0,0,7.16,26.13Zm5.24,5.22a1.5,1.5,0,1,0,1.5,1.5A1.5,1.5,0,0,0,12.4,31.35ZM22,22a5,5,0,0,0,0-10H16v8H14v2h2v2H14v2h2v3h2V26h6V24H18V22Zm-4-8h4a3,3,0,0,1,0,6H18Z"/></g></svg>
